X:1
M:6/8
K:G
|:B/2c/2|dAA AFG|ABA DFA|dfa gfd|ecd efg|
eAG AFG|ddd ddB|AGF AGD|F3 A2:|
c/2d/2|ece AcB|ABc B2d|cBc ABc|d3 d2:|